svg/icon/nlc2.svg

<svg xmlns="http://www.w3.org/2000/svg" xmlns:xlink="http://www.w3.org/1999/xlink" width="32" height="32" viewBox="0 0 32 32">
  <defs>
    <linearGradient id="nlc2-c" x1="50%" x2="50%" y1="0%" y2="100%">
      <stop offset="0%" stop-color="#FFF" stop-opacity=".5"/>
      <stop offset="100%" stop-opacity=".5"/>
    </linearGradient>
    <circle id="nlc2-b" cx="16" cy="15" r="15"/>
    <filter id="nlc2-a" width="111.7%" height="111.7%" x="-5.8%" y="-4.2%" filterUnits="objectBoundingBox">
      <feOffset dy=".5" in="SourceAlpha" result="shadowOffsetOuter1"/>
      <feGaussianBlur in="shadowOffsetOuter1" result="shadowBlurOuter1" stdDeviation=".5"/>
      <feComposite in="shadowBlurOuter1" in2="SourceAlpha" operator="out" result="shadowBlurOuter1"/>
      <feColorMatrix in="shadowBlurOuter1" values="0 0 0 0 0   0 0 0 0 0   0 0 0 0 0  0 0 0 0.199473505 0"/>
    </filter>
    <path id="nlc2-e" d="M18.1514006,12.7186544 L16.2086171,8.90261181 C16.6127489,8.0221543 16.8148148,7.52387269 16.8148148,7.40776699 C16.8148148,6.99514563 16.5432099,6.69255663 16,6.5 C18.8790123,6.5 20.8617284,6.5 21.9481481,6.5 C21.2148148,6.83009709 20.562963,7.65533981 19.9925926,8.97572816 L18.1514006,12.7186544 Z M15.2353073,18.6467281 L14.3296296,20.4878641 C16.2308642,20.4878641 18.0098765,20.4878641 19.6666667,20.4878641 C22.0839506,20.4878641 23.7,20.0339806 24.5148148,19.1262136 L21.662963,23.5 C13.1345679,23.5 8.27283951,23.5 7.07777778,23.5 C8.65308642,23.197411 10.2419753,21.2993528 11.8444444,17.8058252 C12.3837869,16.73163 12.8792356,15.7404526 13.3307908,14.8322932 L15.2353073,18.6467281 Z M5,19.25 C6.18148148,18.5485437 10.5,11.0784853 10.5,8.97572816 C10.5,8.48058252 10.2014749,8.01294498 9.60442472,7.57281553 L14.2481481,7.57281553 L18.2814815,15.4951456 L22.1925926,7.57281553 L27,7.57281553 C24.962963,8.1092233 20.9296296,17.7193521 20.9296296,18.8373786 C20.9296296,19.0574434 20.9704357,19.1949838 21.0520477,19.25 L16.8148148,19.25 L13.1888889,11.9878641 L9.60442472,19.25 L5,19.25 Z"/>
    <filter id="nlc2-d" width="115.9%" height="120.6%" x="-8%" y="-7.4%" filterUnits="objectBoundingBox">
      <feOffset dy=".5" in="SourceAlpha" result="shadowOffsetOuter1"/>
      <feGaussianBlur in="shadowOffsetOuter1" result="shadowBlurOuter1" stdDeviation=".5"/>
      <feColorMatrix in="shadowBlurOuter1" values="0 0 0 0 0   0 0 0 0 0   0 0 0 0 0  0 0 0 0.204257246 0"/>
    </filter>
  </defs>
  <g fill="none" fill-rule="evenodd">
    <use fill="#000" filter="url(#nlc2-a)" xlink:href="#nlc2-b"/>
    <use fill="#F28F01" xlink:href="#nlc2-b"/>
    <use fill="url(#nlc2-c)" style="mix-blend-mode:soft-light" xlink:href="#nlc2-b"/>
    <circle cx="16" cy="15" r="14.5" stroke="#000" stroke-opacity=".097"/>
    <g>
      <use fill="#000" filter="url(#nlc2-d)" xlink:href="#nlc2-e"/>
      <use fill="#FFF" xlink:href="#nlc2-e"/>
    </g>
  </g>
</svg>

<svg height="32" width="32" xmlns="http://www.w3.org/2000/svg" xmlns:xlink="http://www.w3.org/1999/xlink"><defs><linearGradient id="c" x1="50%" x2="50%" y1="0%" y2="100%"><stop offset="0" stop-color="#fff" stop-opacity=".5"/><stop offset="1" stop-opacity=".5"/></linearGradient><circle id="b" cx="16" cy="15" r="15"/><filter id="a" height="111.7%" width="111.7%" x="-5.8%" y="-4.2%"><feOffset dy=".5" in="SourceAlpha" result="shadowOffsetOuter1"/><feGaussianBlur in="shadowOffsetOuter1" result="shadowBlurOuter1" stdDeviation=".5"/><feComposite in="shadowBlurOuter1" in2="SourceAlpha" operator="out" result="shadowBlurOuter1"/><feColorMatrix in="shadowBlurOuter1" values="0 0 0 0 0 0 0 0 0 0 0 0 0 0 0 0 0 0 0.199473505 0"/></filter><path id="e" d="M18.151 12.719L16.21 8.903c.404-.88.606-1.38.606-1.495 0-.413-.272-.715-.815-.908h5.948c-.733.33-1.385 1.155-1.955 2.476zm-2.916 5.928l-.905 1.84h5.337c2.417 0 4.033-.453 4.848-1.36L21.663 23.5H7.078c1.575-.303 3.164-2.2 4.766-5.694.54-1.074 1.035-2.066 1.487-2.974zM5 19.25c1.181-.701 5.5-8.172 5.5-10.274 0-.495-.299-.963-.896-1.403h4.644l4.033 7.922 3.912-7.922H27c-2.037.536-6.07 10.146-6.07 11.264 0 .22.04.358.122.413h-4.237l-3.626-7.262-3.585 7.262z"/><filter id="d" height="120.6%" width="115.9%" x="-8%" y="-7.4%"><feOffset dy=".5" in="SourceAlpha" result="shadowOffsetOuter1"/><feGaussianBlur in="shadowOffsetOuter1" result="shadowBlurOuter1" stdDeviation=".5"/><feColorMatrix in="shadowBlurOuter1" values="0 0 0 0 0 0 0 0 0 0 0 0 0 0 0 0 0 0 0.204257246 0"/></filter></defs><g fill="none" fill-rule="evenodd"><use fill="#000" filter="url(#a)" xlink:href="#b"/><use fill="#f28f01" xlink:href="#b"/><use fill="url(#c)" xlink:href="#b"/><circle cx="16" cy="15" r="14.5" stroke="#000" stroke-opacity=".097"/><use fill="#000" filter="url(#d)" xlink:href="#e"/><use fill="#fff" xlink:href="#e"/></g></svg>
